boxicons/svg/solid/bxs-magic-wand.svg

<svg xmlns="http://www.w3.org/2000/svg" width="24" height="24" viewBox="0 0 24 24"><path d="m11 4-.5-1-.5 1-1 .125.834.708L9.5 6l1-.666 1 .666-.334-1.167.834-.708zm8.334 10.666L18.5 13l-.834 1.666-1.666.209 1.389 1.181L16.834 18l1.666-1.111L20.166 18l-.555-1.944L21 14.875zM6.667 6.333 6 5l-.667 1.333L4 6.5l1.111.944L4.667 9 6 8.111 7.333 9l-.444-1.556L8 6.5zM3.414 17c0 .534.208 1.036.586 1.414L5.586 20c.378.378.88.586 1.414.586s1.036-.208 1.414-.586L20 8.414c.378-.378.586-.88.586-1.414S20.378 5.964 20 5.586L18.414 4c-.756-.756-2.072-.756-2.828 0L4 15.586c-.378.378-.586.88-.586 1.414zM17 5.414 18.586 7 15 10.586 13.414 9 17 5.414z"/></svg>

<svg xmlns="http://www.w3.org/2000/svg" width="24" height="24" viewBox="0 0 24 24"><path d="M11 4L10.5 3 10 4 9 4.125 9.834 4.833 9.5 6 10.5 5.334 11.5 6 11.166 4.833 12 4.125zM19.334 14.666L18.5 13 17.666 14.666 16 14.875 17.389 16.056 16.834 18 18.5 16.889 20.166 18 19.611 16.056 21 14.875zM6.667 6.333L6 5 5.333 6.333 4 6.5 5.111 7.444 4.667 9 6 8.111 7.333 9 6.889 7.444 8 6.5zM3.414 17c0 .534.208 1.036.586 1.414L5.586 20c.378.378.88.586 1.414.586S8.036 20.378 8.414 20L20 8.414c.378-.378.586-.88.586-1.414S20.378 5.964 20 5.586L18.414 4c-.756-.756-2.072-.756-2.828 0L4 15.586C3.622 15.964 3.414 16.466 3.414 17zM17 5.414L18.586 7 15 10.586 13.414 9 17 5.414z"/></svg>
